X: 10272
Q: "Lively"
M: 6/8
L: 1/8
K: D
f/e/ |\
d2A FED | E>FE cBc |\
d2A F2E | FDD D2 :|\
|: A |\
dcd Bcd | efd cBA |
dcd efg | fdd d2f |\
d2A F2E | FDD D2 :|


